X: 100193
M: C|
L: 1/8
K: Bm
uF |\
vBFBc dBFd | cAeA cAAc | BFBc dBFd | caec B/B/B {^gfe}f2 |
def^g agfa | efde cAAa | fdec dBcA | FAEC B,/B,/B, {^GF^E}"^Fine."F2 "_D.C."|]


